lib/logo_updates/nrk-logo-nrk-super-with-bg.svg

<svg width="254" height="84" viewBox="0 0 254 84" fill="none" xmlns="http://www.w3.org/2000/svg">
<rect width="254" height="84" rx="42" fill="#00B3C7"/>
<path d="M33 63V21.0038H46.7802V63H33ZM65.5283 27.6877L73.4532 63H58.3721L48.9092 21.0038H57.3676C59.3072 20.9786 61.1892 21.6624 62.6607 22.9264C64.1347 24.1373 65.1473 25.8184 65.5283 27.6877ZM75.5233 63V21.0038H89.3035V63H75.5233ZM99.7116 36.9743C98.2267 36.9888 96.7656 36.6003 95.4839 35.8504C94.2193 35.1194 93.1688 34.0689 92.438 32.8041C91.6872 31.5222 91.2986 30.0607 91.3134 28.5751C91.2964 27.0986 91.6853 25.6458 92.438 24.3755C93.1766 23.1245 94.2259 22.0853 95.4839 21.3588C96.766 20.6098 98.2269 20.2213 99.7116 20.2348C101.188 20.2189 102.64 20.6078 103.911 21.3588C105.156 22.0917 106.194 23.13 106.927 24.3755C107.679 25.6462 108.068 27.0987 108.052 28.5751C108.065 30.0605 107.677 31.5218 106.927 32.8041C106.202 34.0633 105.163 35.113 103.911 35.8504C102.64 36.6029 101.187 36.9918 99.7097 36.9743H99.7116ZM110.181 63V21.0038H123.962V63H110.181ZM141.408 43.9538C141.447 43.9946 141.742 44.4776 142.295 45.403C142.848 46.3283 143.567 47.5114 144.454 48.952C145.341 50.392 146.277 51.9199 147.262 53.536C148.247 55.1521 149.174 56.6803 150.043 58.1202C150.908 59.5602 151.894 61.1867 153 63H137.859C136.912 61.4621 136.055 60.0721 135.286 58.83C134.517 57.5878 133.7 56.2471 132.833 54.8077C131.965 53.3698 131.107 51.9699 130.259 50.6081C129.41 49.2464 128.681 48.0536 128.071 47.0297C127.459 46.0051 127.035 45.3149 126.799 44.9594C126.214 44.0771 125.868 43.058 125.794 42.0019C125.853 40.9883 126.179 40.0084 126.74 39.1619C126.976 38.7676 127.41 38.0675 128.041 37.062C128.672 36.0564 129.411 34.8637 130.259 33.4835C131.106 32.1034 131.965 30.6936 132.833 29.2543C133.702 27.815 134.519 26.4643 135.286 25.2025C136.056 23.9419 136.914 22.5421 137.859 21.0029H153L141.289 40.1082C140.926 40.6755 140.722 41.3292 140.697 42.0019C140.736 42.7081 140.983 43.3871 141.406 43.9538H141.408Z" fill="white"/>
<path d="M202.034 13.4076C205.728 14.9744 209.085 17.2389 211.922 20.0773C214.76 22.9137 217.025 26.2712 218.591 29.9657C220.209 33.7799 221.029 37.885 220.999 42.028C221.025 46.1526 220.206 50.2387 218.591 54.0343C217.024 57.7285 214.76 61.0859 211.922 63.9227C209.085 66.7608 205.728 69.0253 202.034 70.5924C198.22 72.2093 194.114 73.0283 189.971 72.9992C185.828 73.0287 181.722 72.2096 177.908 70.5924C174.22 69.0298 170.871 66.7645 168.048 63.9227C165.225 61.0798 162.972 57.7234 161.409 54.0343C159.794 50.2388 158.975 46.1526 159.001 42.028C158.971 37.885 159.79 33.7798 161.409 29.9657C162.971 26.2763 165.225 22.9198 168.048 20.0773C170.871 17.2352 174.22 14.9699 177.908 13.4076C181.722 11.79 185.828 10.9709 189.971 11.0008C194.114 10.9713 198.22 11.7904 202.034 13.4076ZM199.714 64.9377C202.679 63.6958 205.377 61.8937 207.659 59.63C209.941 57.3683 211.754 54.6784 212.995 51.7144C214.281 48.6483 214.932 45.3531 214.909 42.028C214.932 38.7034 214.281 35.4085 212.995 32.3426C211.75 29.3727 209.937 26.6741 207.659 24.398C205.379 22.1174 202.682 20.2958 199.714 19.0323C196.634 17.7249 193.318 17.064 189.971 17.0904C186.644 17.0676 183.347 17.7285 180.286 19.0323C177.318 20.2956 174.62 22.1171 172.339 24.398C170.059 26.6782 168.237 29.3753 166.974 32.3426C165.67 35.404 165.009 38.7006 165.032 42.028C165.009 45.3558 165.67 48.6529 166.974 51.7144C168.233 54.6758 170.055 57.3642 172.339 59.63C174.622 61.8939 177.32 63.696 180.286 64.9377C183.351 66.2237 186.646 66.8748 189.971 66.8515C193.315 66.8785 196.629 66.2274 199.714 64.9377ZM176.428 45.5088C175.99 45.0778 175.644 44.5628 175.41 43.9948C175.176 43.4268 175.059 42.8173 175.066 42.203C175.051 41.5703 175.164 40.9412 175.398 40.3532C175.632 39.7652 175.982 39.2305 176.428 38.7812C176.857 38.3307 177.375 37.9744 177.949 37.7347C178.523 37.4951 179.141 37.3775 179.763 37.3893C180.402 37.377 181.037 37.4939 181.63 37.7331C182.223 37.9723 182.762 38.3288 183.213 38.7812C183.675 39.2219 184.039 39.7537 184.284 40.3427C184.529 40.9318 184.648 41.5653 184.635 42.203C184.64 42.8224 184.516 43.4361 184.271 44.0052C184.027 44.5742 183.666 45.0862 183.213 45.5088C182.762 45.9612 182.223 46.3177 181.63 46.5569C181.037 46.7961 180.402 46.913 179.763 46.9007C179.141 46.9125 178.523 46.7948 177.949 46.5552C177.375 46.3156 176.857 45.9592 176.428 45.5088ZM200.003 35.3594C200.042 35.2424 200.12 35.2424 200.236 35.3594L201.628 39.1292C201.653 39.2324 201.712 39.3239 201.797 39.3876C201.882 39.4514 201.986 39.4834 202.092 39.4781L206.209 39.5931C206.286 39.5931 206.325 39.6231 206.325 39.6811C206.314 39.761 206.272 39.8336 206.209 39.8841L203.251 42.4359C203.193 42.4527 203.138 42.4815 203.091 42.5204C203.044 42.5593 203.006 42.6076 202.979 42.6621C202.951 42.7167 202.936 42.7763 202.933 42.8372C202.93 42.8981 202.94 42.959 202.961 43.0159L204.006 46.7857C204.006 46.979 203.947 47.0757 203.831 47.0757L200.409 44.8138C200.185 44.7343 199.939 44.7343 199.714 44.8138L196.466 47.0757C196.311 47.0757 196.253 46.979 196.293 46.7857L197.337 43.0159C197.346 42.9019 197.324 42.7876 197.273 42.6853C197.222 42.583 197.143 42.4967 197.047 42.4359L193.974 39.8841C193.939 39.8219 193.919 39.7524 193.916 39.6811C193.916 39.6231 193.934 39.5931 193.974 39.5931L198.091 39.4781C198.205 39.4899 198.319 39.4614 198.414 39.3977C198.51 39.334 198.58 39.239 198.613 39.1292L200.003 35.3594Z" fill="white"/>
</svg>

<svg xmlns="http://www.w3.org/2000/svg" viewBox="0 0 254 84"><rect width="254" height="84" fill="#00B3C7" rx="42"/><path fill="#fff" d="M33 63V21.004h13.78V63H33Zm32.528-35.312L73.453 63h-15.08l-9.464-41.996h8.459a7.965 7.965 0 0 1 5.293 1.922 8.31 8.31 0 0 1 2.867 4.762ZM75.523 63V21.004h13.78V63h-13.78Zm24.189-26.026a8.213 8.213 0 0 1-4.228-1.124 8.336 8.336 0 0 1-3.046-3.046 8.206 8.206 0 0 1-1.125-4.229 8.056 8.056 0 0 1 1.125-4.2 8.437 8.437 0 0 1 3.046-3.016 8.233 8.233 0 0 1 4.228-1.124 8.083 8.083 0 0 1 4.199 1.124 8.508 8.508 0 0 1 3.016 3.016 8.074 8.074 0 0 1 1.125 4.2 8.233 8.233 0 0 1-1.125 4.23 8.399 8.399 0 0 1-3.016 3.045 8.058 8.058 0 0 1-4.201 1.124h.002ZM110.18 63V21.004h13.781V63h-13.781Zm31.227-19.046c.039.04.334.524.887 1.449.553.925 1.272 2.108 2.159 3.549a1143.28 1143.28 0 0 1 5.589 9.168A854.89 854.89 0 0 0 153 63h-15.141c-.947-1.538-1.804-2.928-2.573-4.17a388.795 388.795 0 0 1-2.453-4.022 355.984 355.984 0 0 0-2.574-4.2 210.645 210.645 0 0 1-2.188-3.578 62.13 62.13 0 0 0-1.272-2.07 6.127 6.127 0 0 1-1.005-2.958 5.745 5.745 0 0 1 .946-2.84c.236-.394.67-1.094 1.301-2.1.631-1.006 1.37-2.198 2.218-3.578.847-1.38 1.706-2.79 2.574-4.23.869-1.439 1.686-2.79 2.453-4.052.77-1.26 1.628-2.66 2.573-4.2H153l-11.711 19.106a3.773 3.773 0 0 0-.592 1.894c.039.706.286 1.385.709 1.952h.002ZM202.034 13.408a31.211 31.211 0 0 1 9.888 6.67 31.192 31.192 0 0 1 6.669 9.888 30.326 30.326 0 0 1 2.408 12.062 30.179 30.179 0 0 1-2.408 12.006 31.216 31.216 0 0 1-6.669 9.889 31.221 31.221 0 0 1-9.888 6.67 30.362 30.362 0 0 1-12.063 2.406 30.35 30.35 0 0 1-12.063-2.407 30.878 30.878 0 0 1-9.86-6.67 31.439 31.439 0 0 1-6.639-9.888 30.178 30.178 0 0 1-2.408-12.006 30.308 30.308 0 0 1 2.408-12.062 31.414 31.414 0 0 1 6.639-9.889 30.868 30.868 0 0 1 9.86-6.67 30.336 30.336 0 0 1 12.063-2.406 30.35 30.35 0 0 1 12.063 2.407Zm-2.32 51.53a24.99 24.99 0 0 0 7.945-5.308 24.425 24.425 0 0 0 5.336-7.916 24.604 24.604 0 0 0 1.914-9.686 24.6 24.6 0 0 0-1.914-9.685 24.768 24.768 0 0 0-5.336-7.945 25.18 25.18 0 0 0-7.945-5.366 24.44 24.44 0 0 0-9.743-1.942 24.292 24.292 0 0 0-9.685 1.942 25.192 25.192 0 0 0-13.312 13.31 24.287 24.287 0 0 0-1.942 9.686 24.29 24.29 0 0 0 1.942 9.686 24.838 24.838 0 0 0 5.365 7.916 24.993 24.993 0 0 0 7.947 5.308 24.588 24.588 0 0 0 9.685 1.913 24.74 24.74 0 0 0 9.743-1.913Zm-23.286-19.43a4.561 4.561 0 0 1-1.362-3.305 4.701 4.701 0 0 1 1.362-3.422 4.489 4.489 0 0 1 3.335-1.392 4.747 4.747 0 0 1 3.45 1.392 4.596 4.596 0 0 1 1.422 3.422 4.466 4.466 0 0 1-1.422 3.306 4.738 4.738 0 0 1-3.45 1.392 4.49 4.49 0 0 1-3.335-1.392Zm23.575-10.149c.039-.117.117-.117.233 0l1.392 3.77a.456.456 0 0 0 .464.35l4.117.114c.077 0 .116.03.116.088a.316.316 0 0 1-.116.203l-2.958 2.552a.447.447 0 0 0-.272.226.453.453 0 0 0-.018.354l1.045 3.77c0 .193-.059.29-.175.29l-3.422-2.262c-.224-.08-.47-.08-.695 0l-3.248 2.262c-.155 0-.213-.097-.173-.29l1.044-3.77a.63.63 0 0 0-.29-.58l-3.073-2.552a.453.453 0 0 1-.058-.203c0-.058.018-.088.058-.088l4.117-.115a.489.489 0 0 0 .522-.349l1.39-3.77Z"/></svg>
